packages/components/Atoms/Icon/assets/img/rpl_icon_view.svg

<svg width="15" height="11" viewBox="0 0 15 11" overflow="visible" xmlns="http://www.w3.org/2000/svg">
  <path d="M7.5,0 C4.09090909,0 1.17954545,2.19529412 0,5.29411765 C1.17954545,8.39294118 4.09090909,10.5882353 7.5,10.5882353 C10.9090909,10.5882353 13.8204545,8.39294118 15,5.29411765 C13.8204545,2.19529412 10.9090909,0 7.5,0 L7.5,0 Z M7.5,8.82352941 C5.61818182,8.82352941 4.09090909,7.24235294 4.09090909,5.29411765 C4.09090909,3.34588235 5.61818182,1.76470588 7.5,1.76470588 C9.38181818,1.76470588 10.9090909,3.34588235 10.9090909,5.29411765 C10.9090909,7.24235294 9.38181818,8.82352941 7.5,8.82352941 L7.5,8.82352941 Z M7.5,3.17647059 C6.36818182,3.17647059 5.45454545,4.12235294 5.45454545,5.29411765 C5.45454545,6.46588235 6.36818182,7.41176471 7.5,7.41176471 C8.63181818,7.41176471 9.54545455,6.46588235 9.54545455,5.29411765 C9.54545455,4.12235294 8.63181818,3.17647059 7.5,3.17647059 L7.5,3.17647059 Z"  fill="inherit"/>
</svg>

<svg width="15" height="11" overflow="visible" xmlns="http://www.w3.org/2000/svg"><path d="M7.5 0C4.09 0 1.18 2.195 0 5.294c1.18 3.099 4.09 5.294 7.5 5.294s6.32-2.195 7.5-5.294C13.82 2.195 10.91 0 7.5 0zm0 8.824c-1.882 0-3.41-1.582-3.41-3.53 0-1.948 1.528-3.53 3.41-3.53 1.882 0 3.41 1.582 3.41 3.53 0 1.948-1.528 3.53-3.41 3.53zm0-5.648c-1.132 0-2.045.946-2.045 2.118S6.368 7.412 7.5 7.412s2.045-.946 2.045-2.118S8.632 3.176 7.5 3.176z" fill="inherit"/></svg>
